theory/system/projectapp/images/purpose-1.svg

<svg viewBox="0 0 48.19 48.19" xmlns="http://www.w3.org/2000/svg"><rect fill="#6eb52c" height="45.04" rx="22.52" width="45.04" x="1.63" y="1.58"/><path d="m23.75 5.65v4.78a13.51 13.51 0 0 0 -13.09 13.09h-4.77a.4.4 0 1 0 0 .79h4.77a13.49 13.49 0 0 0 13.09 13.09v4.78a.4.4 0 0 0 .8 0v-4.78a13.49 13.49 0 0 0 13.09-13.09h4.79a.37.37 0 0 0 .38-.37.39.39 0 0 0 -.39-.42h-4.78a13.51 13.51 0 0 0 -13.09-13.09v-4.78a.4.4 0 0 0 -.8 0zm0 5.57v4.78a7.94 7.94 0 0 0 -7.53 7.53h-4.76a12.67 12.67 0 0 1 12.29-12.31zm.8 0a12.69 12.69 0 0 1 12.29 12.3h-4.76a7.94 7.94 0 0 0 -7.53-7.52zm-.8 5.58v6.72h-6.75a7.11 7.11 0 0 1 6.75-6.72zm.8 0a7.11 7.11 0 0 1 6.72 6.72h-6.72zm-13.09 7.51h4.76a7.94 7.94 0 0 0 7.53 7.53v4.77a12.69 12.69 0 0 1 -12.29-12.3zm5.57 0h6.72v6.69a7.12 7.12 0 0 1 -6.75-6.69zm7.52 0h6.72a7.12 7.12 0 0 1 -6.72 6.69zm7.53 0h4.76a12.69 12.69 0 0 1 -12.29 12.3v-4.77a8 8 0 0 0 7.53-7.53z" fill="#1d1d1b"/></svg>

<svg id="Layer_1" data-name="Layer 1" xmlns="http://www.w3.org/2000/svg" viewBox="0 0 48.19 48.19">
  <defs>
    <style>
      .cls-1 {
        fill: #6eb52c;
      }

      .cls-2 {
        fill: #1d1d1b;
      }
    </style>
  </defs>
  <title>purpose</title>
  <g>
    <rect class="cls-1" x="1.63" y="1.58" width="45.04" height="45.04" rx="22.52"/>
    <path class="cls-2" d="M23.75,5.65v4.78A13.51,13.51,0,0,0,10.66,23.52H5.89a.4.4,0,1,0,0,.79h4.77A13.49,13.49,0,0,0,23.75,37.4v4.78a.4.4,0,0,0,.8,0V37.4A13.49,13.49,0,0,0,37.64,24.31h4.79a.37.37,0,0,0,.38-.37.39.39,0,0,0-.39-.42H37.64A13.51,13.51,0,0,0,24.55,10.43V5.65A.4.4,0,0,0,23.75,5.65Zm0,5.57V16a7.94,7.94,0,0,0-7.53,7.53H11.46A12.67,12.67,0,0,1,23.75,11.22Zm.8,0a12.69,12.69,0,0,1,12.29,12.3H32.08A7.94,7.94,0,0,0,24.55,16Zm-.8,5.58v6.72H17A7.11,7.11,0,0,1,23.75,16.8Zm.8,0a7.11,7.11,0,0,1,6.72,6.72H24.55ZM11.46,24.31h4.76a7.94,7.94,0,0,0,7.53,7.53v4.77a12.69,12.69,0,0,1-12.29-12.3Zm5.57,0h6.72V31A7.12,7.12,0,0,1,17,24.31Zm7.52,0h6.72A7.12,7.12,0,0,1,24.55,31Zm7.53,0h4.76a12.69,12.69,0,0,1-12.29,12.3V31.84A8,8,0,0,0,32.08,24.31Z"/>
  </g>
</svg>
